X: 53
T: No_58_Lady_Crane,_You_Stole_My_Corn.krn
N: Derived from No_58_Lady_Crane,_You_Stole_My_Corn.krn
%%abc-version 2.0
%%abcx-abcm2ps-target-version 5.9.1 (29 Sep 2008)
%%abc-creator hum2abc beta
%%abcx-conversion-date 2019/03/15 08:25:35
%%humdrum-veritas 896212944
%%humdrum-veritas-data 2840371858
%%linebreak <none>
%%barnumbers 0
L: 1/8
M: 2/4
K: G clef=bass
[K:clef=bass][M:2/4]z3/ D,/ G,3/F,/ | 
G,2G,2 | 
G,3/G,/ (3B,A,B, | 
G,2G, z | 
[M:3/4]B,B, G,G, D, z | 
B,B, G,/G,3/ D, z | 
B,B,G,2D, z | 
[M:2/4]B,B, G,/G,3/ | 
D, z G,G,/F,/ | 
G,2G,2 | 
[M:3/4]G,2G,2(3D,D,F, | 
[M:2/4]G,2G,2 | 
G,2G,2 | 
G,2z2 |]  



